svg/优先级高.svg

<svg width="24" height="24" viewBox="0 0 24 24" fill="none" xmlns="http://www.w3.org/2000/svg">
<rect width="24" height="24" fill="#F5F5F5"/>
<rect x="-282" y="-484" width="953" height="913" rx="16" fill="white"/>
<path d="M20.5197 8.6H14.2197L18.2197 1.2C18.4197 0.7 17.8197 0 17.2197 0H9.1197C8.7197 0 8.3197 0.2 8.1197 0.5L2.0197 14.2C1.8197 14.9 2.4197 15.4 3.0197 15.4H10.1197L8.1197 23.1V23.3C8.1197 23.6 8.5197 24 8.9197 24C9.1197 24 9.5197 23.8 9.5197 23.7L21.3197 9.9C21.7197 9.3 21.3197 8.6 20.5197 8.6Z" fill="#379BFF"/>
</svg>

<svg fill="none" viewBox="0 0 24 24"><path fill="#F5F5F5" d="M0 0h24v24H0z"/><rect width="953" height="913" x="-282" y="-484" fill="white" rx="16"/><path fill="#379BFF" d="M20.52 8.6h-6.3l4-7.4c.2-.5-.4-1.2-1-1.2h-8.1c-.4 0-.8.2-1 .5l-6.1 13.7c-.2.7.4 1.2 1 1.2h7.1l-2 7.7v.2c0 .3.4.7.8.7.2 0 .6-.2.6-.3l11.8-13.8c.4-.6 0-1.3-.8-1.3"/></svg>
